X: 163
T:He's Over the Hill that I Love Well
S:Cabar Feidh Collection
M:2/4
L:1/16
Q:1/4=84
K:BMin
   f>e|d2B2 B2A>B|G2B2   B2A>B |d2d>e f>de>f|A4 A2
[1 f>e|d2B2 B2A>B|G2B2   B2A>B |d2d>e f>de>f|B4 B2:|
[2 f>e|d2B2 B3A  |B2d2   e3f   |g2f>e g>fe>d|B4 B2||
   e>f|g3a  g2e2 |f>ef<a g>fe>f|d2d>e f>de>f|A4 A2
[1 e>f|g3a  g2e2 |f>ef<a g>fe>f|d2d>e f>de>f|B4 B2:|
[2 f>e|d2B2 B3A  |B2d2   e3f   |g2f>e g>fe>d|B4 B2|]

